incomeartour/img/icons/firework.svg

<svg width="27" height="29" viewBox="0 0 27 29" fill="none" xmlns="http://www.w3.org/2000/svg">
<path d="M19.8144 12.2253C19.3311 9.82975 16.654 9.7915 16.654 9.7915C8.73386 17.6247 11.1398 28.2185 11.1398 28.2185C12.7635 17.9585 19.8144 12.2253 19.8144 12.2253Z" fill="black"/>
<path d="M6.93689 12.5239C6.93689 12.5239 4.09984 11.5748 2.72998 13.7269C2.72998 13.7269 4.68046 25.6418 7.66702 28.2216C7.77132 28.5589 6.02945 19.8252 6.93689 12.5239Z" fill="black"/>
<path d="M7.25966 2.88047L5.10058 0.450195L3.46649 3.26292L0.490356 4.56671L2.65987 6.98656L2.97974 10.2234L5.95239 8.90922L9.13017 9.60458L8.7964 6.36769L10.4409 3.56192L7.25966 2.88047Z" fill="black"/>
<path d="M23.8126 0.428223L20.8678 1.80851L17.6761 1.18616L18.0829 4.41262L16.5044 7.25316L19.6961 7.86507L21.9108 10.2467L23.4788 7.39571L26.4271 6.02585L24.2055 3.65468L23.8126 0.428223Z" fill="black"/>
<path d="M23.9311 16.3346L22.7733 14.9995L21.8659 16.5189L20.2388 17.2107L21.4035 18.5424L21.5565 20.3051L23.1836 19.6097L24.9046 20.0061L24.7447 18.2434L25.6556 16.7275L23.9311 16.3346Z" fill="black"/>
<path d="M18.1877 19.0149C16.8301 20.1218 15.7615 21.5416 15.0736 23.1524C14.3856 24.7633 14.0989 26.5171 14.2381 28.2631C14.2381 28.2631 16.8839 22.2796 19.5297 21.4591C20.5902 20.875 19.2516 18.4343 18.1877 19.0149Z" fill="black"/>
</svg>

<svg width="27" height="29" fill="none" xmlns="http://www.w3.org/2000/svg"><path d="M19.814 12.225c-.483-2.395-3.16-2.434-3.16-2.434-7.92 7.834-5.514 18.427-5.514 18.427 1.623-10.26 8.674-15.993 8.674-15.993zm-12.877.299s-2.837-.95-4.207 1.203c0 0 1.95 11.915 4.937 14.495.104.337-1.638-8.397-.73-15.698zM7.26 2.88L5.1.45 3.467 3.263.49 4.567l2.17 2.42.32 3.236L5.952 8.91l3.178.696-.334-3.237 1.645-2.806L7.26 2.88zM23.813.428l-2.945 1.38-3.192-.622.407 3.227-1.579 2.84 3.192.612 2.215 2.382 1.568-2.851 2.948-1.37-2.221-2.371-.393-3.227zm.118 15.907l-1.158-1.336-.907 1.52-1.627.692 1.165 1.331.152 1.763 1.628-.695 1.72.396-.16-1.763.912-1.515-1.725-.393zm-5.743 2.68a10.823 10.823 0 00-3.95 9.248s2.646-5.983 5.292-6.804c1.06-.584-.278-3.025-1.342-2.444z" fill="#000"/></svg>
